X:418
T:Spring Fever
C:Larry Rice
N:Transcribed by Tristan Scroggins 
R:bluegrass
L:1/8
Q:1/4=220
M:4/4
K:C
z4 ga g2 |: de eg ^d=d cA | G4 A_B BB | _B2 A2 G2 F2 | FG cG Gc GG | c4 ga g2 | 
de eg ^d=d cA | G4 A_B BB | _B2 A2 G2 F2 | FG GG Bc ^cd | g6 e^f | ge dc BG Bd | 
cA Gc AG E/F/E |1 C4 ga g2 :|2 C8 | CD DD DD CC | CC CC DE EE | DD DD DD DD | 
GA _B=B d4 | CD DD DD CC | CC CC DE GA | GE D6 | z8 | CD DD DD CC | CC CC DE EE | 
DD DD DD DD | GA _B=B d4 | Bc ^cd g4 | ^fg gb ge dg | ed BA dB GB | AG EG DE DB, | 
G,8 | 


